Newaita/actions/16/go-next.svg

<?xml version="1.0" encoding="UTF-8"?>
<svg xmlns="http://www.w3.org/2000/svg" xmlns:xlink="http://www.w3.org/1999/xlink" width="16pt" height="16pt" viewBox="0 0 16 16" version="1.1">
<g id="surface1">
<path style=" stroke:none;fill-rule:nonzero;fill:rgb(25.882354%,25.882354%,25.882354%);fill-opacity:1;" d="M 15.214844 8.0625 C 15.214844 4.03125 11.96875 0.785156 7.9375 0.785156 C 3.90625 0.785156 0.660156 4.03125 0.660156 8.0625 C 0.660156 12.09375 3.90625 15.339844 7.9375 15.339844 C 11.96875 15.339844 15.214844 12.09375 15.214844 8.0625 Z M 14.222656 8.0625 C 14.222656 11.542969 11.417969 14.347656 7.9375 14.347656 C 4.457031 14.347656 1.652344 11.542969 1.652344 8.0625 C 1.652344 4.582031 4.457031 1.777344 7.9375 1.777344 C 11.417969 1.777344 14.222656 4.582031 14.222656 8.0625 Z M 14.222656 8.0625 "/>
<path style=" stroke:none;fill-rule:nonzero;fill:rgb(14.901961%,65.098041%,60.392159%);fill-opacity:1;" d="M 6.453125 4.527344 C 6.328125 4.527344 6.199219 4.574219 6.105469 4.671875 C 5.910156 4.867188 5.910156 5.179688 6.105469 5.375 L 8.792969 8.0625 L 6.105469 10.753906 C 5.910156 10.945312 5.910156 11.261719 6.105469 11.453125 C 6.296875 11.648438 6.609375 11.648438 6.804688 11.453125 L 9.84375 8.414062 L 9.847656 8.414062 C 9.851562 8.40625 9.859375 8.402344 9.863281 8.394531 C 9.871094 8.390625 9.875 8.382812 9.878906 8.375 C 9.886719 8.371094 9.890625 8.363281 9.894531 8.355469 C 9.902344 8.351562 9.90625 8.34375 9.910156 8.335938 C 9.914062 8.328125 9.917969 8.320312 9.921875 8.316406 C 9.925781 8.308594 9.929688 8.300781 9.933594 8.292969 C 9.9375 8.285156 9.941406 8.28125 9.945312 8.273438 C 9.949219 8.265625 9.953125 8.257812 9.957031 8.25 C 9.957031 8.242188 9.960938 8.234375 9.964844 8.226562 C 9.964844 8.21875 9.96875 8.210938 9.972656 8.203125 C 9.972656 8.195312 9.976562 8.1875 9.976562 8.179688 C 9.980469 8.171875 9.980469 8.164062 9.984375 8.15625 C 9.984375 8.148438 9.984375 8.140625 9.988281 8.132812 C 9.988281 8.125 9.988281 8.117188 9.988281 8.109375 C 9.988281 8.101562 9.992188 8.09375 9.992188 8.085938 C 9.992188 8.078125 9.992188 8.070312 9.992188 8.0625 C 9.992188 8.054688 9.992188 8.046875 9.992188 8.039062 C 9.992188 8.03125 9.988281 8.023438 9.988281 8.015625 C 9.988281 8.007812 9.988281 8 9.988281 7.992188 C 9.984375 7.984375 9.984375 7.976562 9.984375 7.96875 C 9.980469 7.960938 9.980469 7.953125 9.976562 7.945312 C 9.976562 7.9375 9.972656 7.929688 9.972656 7.921875 C 9.96875 7.914062 9.964844 7.90625 9.964844 7.898438 C 9.960938 7.890625 9.957031 7.882812 9.957031 7.875 C 9.953125 7.871094 9.949219 7.863281 9.945312 7.855469 C 9.941406 7.847656 9.9375 7.839844 9.933594 7.832031 C 9.929688 7.824219 9.925781 7.820312 9.921875 7.8125 C 9.917969 7.804688 9.914062 7.796875 9.910156 7.789062 C 9.90625 7.785156 9.902344 7.777344 9.894531 7.769531 C 9.890625 7.761719 9.886719 7.757812 9.878906 7.75 C 9.875 7.742188 9.871094 7.738281 9.863281 7.730469 C 9.859375 7.726562 9.851562 7.71875 9.847656 7.710938 L 9.84375 7.710938 L 6.804688 4.671875 C 6.707031 4.574219 6.582031 4.527344 6.453125 4.527344 Z M 6.453125 4.527344 "/>
</g>
</svg>

<svg xmlns="http://www.w3.org/2000/svg" width="16pt" height="16pt" viewBox="0 0 16 16"><path d="M15.215 8.063A7.262 7.262 0 0 0 7.938.785 7.262 7.262 0 0 0 .66 8.062a7.262 7.262 0 0 0 7.277 7.278 7.262 7.262 0 0 0 7.278-7.277zm-.992 0a6.273 6.273 0 0 1-6.286 6.285 6.273 6.273 0 0 1-6.285-6.286 6.273 6.273 0 0 1 6.285-6.285 6.273 6.273 0 0 1 6.286 6.285zm0 0" fill="#424242"/><path d="M6.453 4.527a.495.495 0 0 0-.348.848l2.688 2.688-2.688 2.69a.49.49 0 0 0 0 .7.49.49 0 0 0 .7 0l3.039-3.039h.004c.004-.008.011-.012.015-.02.008-.003.012-.011.016-.019.008-.004.012-.012.016-.02.007-.003.011-.011.015-.02a.085.085 0 0 1 .012-.019l.012-.023.011-.02.012-.023c0-.008.004-.016.008-.023 0-.008.004-.016.008-.024 0-.008.004-.015.004-.023.003-.008.003-.016.007-.024 0-.008 0-.015.004-.023v-.024c0-.007.004-.015.004-.023v-.024-.023c0-.008-.004-.016-.004-.023v-.024c-.004-.008-.004-.015-.004-.023-.004-.008-.004-.016-.007-.024 0-.008-.004-.015-.004-.023-.004-.008-.008-.016-.008-.024-.004-.007-.008-.015-.008-.023-.004-.004-.008-.012-.012-.02l-.011-.023-.012-.02-.012-.023-.015-.02a.069.069 0 0 0-.016-.019.069.069 0 0 0-.016-.02c-.004-.003-.011-.011-.015-.02h-.004l-3.04-3.038a.49.49 0 0 0-.35-.145zm0 0" fill="#26a69a"/></svg>
